src/images/help.svg

<svg viewBox="0 0 32 32" xmlns="http://www.w3.org/2000/svg">
  <title>help</title>
  <path d="M16 2a14 14 0 1 0 14 14A14 14 0 0 0 16 2Zm0 26a12 12 0 1 1 12-12 12 12 0 0 1-12 12Z"/>
  <circle cx="16" cy="23.5" r="1.5"/>
  <path d="M17 8h-1.5a4.49 4.49 0 0 0-4.5 4.5v.5h2v-.5a2.5 2.5 0 0 1 2.5-2.5H17a2.5 2.5 0 0 1 0 5h-2v4.5h2V17a4.5 4.5 0 0 0 0-9Z"/>
  <path d="M0 0h32v32H0z" style="fill:none"/>
</svg>

<svg id="icon" xmlns="http://www.w3.org/2000/svg" viewBox="0 0 32 32"><defs><style>.cls-1{fill:none;}</style></defs><title>help</title><path d="M16,2A14,14,0,1,0,30,16,14,14,0,0,0,16,2Zm0,26A12,12,0,1,1,28,16,12,12,0,0,1,16,28Z"/><circle cx="16" cy="23.5" r="1.5"/><path d="M17,8H15.5A4.49,4.49,0,0,0,11,12.5V13h2v-.5A2.5,2.5,0,0,1,15.5,10H17a2.5,2.5,0,0,1,0,5H15v4.5h2V17a4.5,4.5,0,0,0,0-9Z"/><rect class="cls-1" width="32" height="32"/></svg>
